X:1
T:Title
%%score { ( 1 3 ) | ( 2 4 ) }
L:1/8
Q:1/4=100
M:4/4
K:D
V:1 treble nm="Grand Piano"
V:3 treble 
V:2 bass 
V:4 bass 
V:1
 [DF]2 [FA]>[GB] [FA]3 [FA] | [Fd][FA][FA]F B2 A2 | [EG]3 [^DF] [EG]2 [GB]2 | %3
w: W.~H.~Doane * * * *|||
 [FA][EG] [DF]2 [CE]4 | [DF]2 [FA]>[GB] [FA]3 [FA] | [FA][Fd][Ad][Ac] B4 | B2 (3dcB A2 d2 | %7
w: ||||
 c2 Bc [Fd]4 | [Ec]2 [Ec]>[Ec] [Ec]2 [EA]2 | cB A>B [CA]2 [CE]2 | [Ec]2 A2 e2 c2 | %11
w: ||||
 [^GB][FA][GB][Ac] [GB]4 | [EA]2 [Ec]>[DB] [CA]2 [EA]2 | [FB][FA][FA][DF] [CE]4 | %14
w: |||
 [Ec]2 [CEA]2 [A,CEe]2 [Ed][Ec] | B4 z4 | [DF]2 [FA]>[GB] [FA]3 [FA] | [FA][Fd][Ad][Ac] B4 | %18
w: ||||
 B2 (3dcB A2 d2 |[M:8/4] c2 G-[Gc] [Fd]4 z8 |] %20
w: ||
V:2
 [D,A,]2 [D,D]>[D,D] [D,D]3 [D,D] | [D,A,][D,D][D,D][D,A,D] [D,G,D]2 [D,F,D]2 | %2
 [A,,A,]3 [A,,A,] [A,,A,]2 [A,,A,]2 | [D,A,][D,A,] [D,A,]2 [A,,A,]4 | %4
 [D,A,]2 [D,D]>[D,D] [D,D]3 [D,D] | [D,D][D,A,][F,D][F,D][K:treble] [G,DG]4 | %6
 [G,DG]2 (3[G,-B,G-][G,CG][G,DG] [A,DF]2 [A,DF]2 | [A,E]2 [A,,A,]2 [D,A,]4 | %8
 [A,,A,]2 [A,,A,]>[A,,A,] [A,,A,]2 [C,A,]2 | [E,A,E][E,^G,E] [E,CE]>[E,G,D] [A,,A,]2 [A,,A,]2 | %10
 [A,,A,]2[K:treble] [A,CE]2 [A,CE]2 [A,EA]2 | [E,E][E,E][E,E][E,E] [E,E]4 | %12
 [A,C]2 [A,,A,]>[A,,A,] [A,,A,]2 [C,A,]2 | [D,A,][D,D][D,D][D,A,] [A,,A,]4 | %14
 [A,,A,]2 A,,2 A,,2 [A,,B,][A,,A,] | E2 z2 z4 | [D,A,]2 [D,D]>[D,D] [D,D]3 [D,D] | %17
 [D,D][D,A,][F,D][F,D][K:treble] [G,DG]4 | [G,DG]2 (3[G,-B,G-][G,CG][G,DG] [A,DF]2 [A,DF]2 | %19
[M:8/4][K:bass] [A,E]2 [A,,A,]2 [D,A,]4 z8 |] %20
V:3
 x8 | x8 | x8 | x8 | x8 | x8 | x8 | z2 G2 z4 | x8 | x8 | x8 | x8 | x8 | x8 | x8 | z2 D2 [CA]4 | %16
 x8 | x8 | x8 |[M:8/4] z2 .B2 z4 z8 |] %20
V:4
 x8 | x8 | x8 | x8 | x8 | x4[K:treble] x4 | x8 | x8 | x8 | x8 | x2[K:treble] x6 | x8 | x8 | x8 | %14
 x8 | [E,^G,]4 [A,,A,]4 | x8 | x4[K:treble] x4 | x8 |[M:8/4][K:bass] x16 |] %20

